!!!COM: Music21
!!!OTL: march_Stuck-In-A-Good-Place
!!!OMV: march_Stuck-In-A-Good-Place
**kern
*clefG2
*k[f#]
*G:
*M4/4
=1
8gL
8bJ
8ddL
8ccJ
4b
8aL
8gJ
=
8f#L
8gJ
8eL
8f#J
4.d
8c
=
8BL
8dJ
8gL
8aJ
8bL
8gJ
8ccL
8bJ
=
2a
4r
8gL
8f#J
=
8gL
8bJ
8ddL
8ccJ
4b
8aL
8gJ
=
8f#L
8gJ
8eL
8f#J
4.d
8c
!!linebreak:original
=
8BL
8dJ
8gL
8aJ
8bL
8gJ
8ccL
8bJ
=
4a
8gL
8f#J
4g
4r
=||
*M4/4
8gL
8bJ
8ddL
8ccJ
4b
8aL
8gJ
=
8f#L
8gJ
8eL
8f#J
4.d
8c
=
8BL
8dJ
8gL
8aJ
8bL
8gJ
8ccL
8bJ
=
2a
4r
8gL
8f#J
!!linebreak:original
=
8gL
8bJ
8ddL
8ccJ
4b
8aL
8gJ
=
8f#L
8gJ
8eL
8f#J
4.d
8c
=
8BL
8dJ
8gL
8aJ
8bL
8gJ
8ccL
8bJ
=
4a
8gL
8f#J
4g
8bL
8ccJ
=||
8ddL
8bJ
8ggL
8ff#J
4ee
8ddL
8ccJ
=
8bL
8ccJ
8ddL
8bJ
4a
8bL
8ccJ
!!linebreak:original
=
8ddL
8bJ
8ggL
8ff#J
4ee
8ddL
8ccJ
=
2dd
4r
8bL
8ccJ
=
8ddL
8bJ
8ggL
8ff#J
8eeL
8ff#J
8ggL
8aaJ
=
4bb
8aaL
8ggJ
4aa
8ggL
8ff#J
=
4ee
8ddL
8ccJ
8bL
8aJ
8gL
8f#J
=
2g
4r
8bL
8ccJ
!!linebreak:original
=||
8ddL
8bJ
8ggL
8ff#J
4ee
8ddL
8ccJ
=
8bL
8ccJ
8ddL
8bJ
4a
8bL
8ccJ
=
8ddL
8bJ
8ggL
8ff#J
4ee
8ddL
8ccJ
=
2dd
4r
8bL
8ccJ
=
8ddL
8bJ
8ggL
8ff#J
8eeL
8ff#J
8ggL
8aaJ
=
4bb
8aaL
8ggJ
4aa
8ggL
8ff#J
!!linebreak:original
=
4ee
8ddL
8ccJ
8bL
8aJ
8gL
8f#J
=
1g
=||
*-
